;FLAVOR:Marlin
;TIME:4961
;Filament used: 5.57849m
;Layer height: 0.2
;MINX:-29.05
;MINY:-39.75
;MINZ:0.3
;MAXX:29.05
;MAXY:39.75
;MAXZ:35.91
;Generated with Cura_SteamEngine 4.4.0
M140 S60
M105
M190 S60
M104 S210
M105
M109 S210
M82 ;absolute extrusion mode
G28 ;Home
G1 Z15.0 F6000 ;Move the platform down 15mm
;Prime the extruder
G92 E0
G1 F200 E3
G92 E0
G92 E0
G92 E0
G1 F1500 E-6.5
;LAYER_COUNT:169
;LAYER:0
M107
M204 S800
M205 X5 Y5
G0 F4500 X0.001 Y-38.756 Z0.3
M205 X8 Y8
;TYPE:SKIRT
G1 F1500 E0
G1 X0.227 Y-38.87 E0.01579
G1 X1.048 Y-39.196 E0.07087
G1 X1.895 Y-39.446 E0.12595
G1 X2.761 Y-39.619 E0.18102
G1 X3.639 Y-39.712 E0.23608
G1 X4.217 Y-39.73 E0.27215
G1 X19.287 Y-39.75 E1.21195
G1 X20.169 Y-39.711 E1.26701
G1 X21.044 Y-39.593 E1.32207
G1 X21.905 Y-39.396 E1.37715
G1 X22.744 Y-39.121 E1.43222
G1 X23.555 Y-38.772 E1.48728
G1 X24.331 Y-38.352 E1.5423
G1 X25.066 Y-37.862 E1.59739
G1 X25.754 Y-37.308 E1.65248
G1 X26.389 Y-36.694 E1.70756
G1 X26.965 Y-36.026 E1.76257
G1 X27.479 Y-35.308 E1.81764
G1 X27.925 Y-34.546 E1.8727
G1 X28.301 Y-33.747 E1.92777
G1 X28.603 Y-32.917 E1.98285
G1 X28.829 Y-32.064 E2.03788
G1 X28.977 Y-31.193 E2.09298
G1 X29.05 Y-30 E2.16751
G1 X29.05 Y30 E5.90928
G1 X29.01 Y30.882 E5.96434
G1 X28.89 Y31.757 E6.01942
G1 X28.692 Y32.617 E6.07445
G1 X28.417 Y33.456 E6.12951
G1 X28.067 Y34.267 E6.1846
G1 X27.645 Y35.042 E6.23963
G1 X27.154 Y35.777 E6.29475
G1 X26.6 Y36.464 E6.34979
G1 X25.985 Y37.097 E6.40483
G1 X25.316 Y37.673 E6.45989
G1 X24.597 Y38.186 E6.51497
G1 X23.834 Y38.631 E6.57005
G1 X23.035 Y39.006 E6.62509
G1 X22.205 Y39.307 E6.68015
G1 X21.351 Y39.532 E6.73523
G1 X20.48 Y39.678 E6.7903
G1 X19.3 Y39.75 E6.86403
G1 X-19.3 Y39.75 E9.27123
G1 X-20.182 Y39.71 E9.32629
G1 X-21.057 Y39.59 E9.38137
G1 X-21.917 Y39.392 E9.43641
G1 X-22.756 Y39.117 E9.49147
G1 X-23.567 Y38.767 E9.54655
G1 X-24.342 Y38.345 E9.60158
G1 X-25.077 Y37.854 E9.65671
G1 X-25.764 Y37.3 E9.71175
G1 X-26.397 Y36.685 E9.76678
G1 X-26.973 Y36.016 E9.82184
G1 X-27.486 Y35.297 E9.87692
G1 X-27.931 Y34.534 E9.932
G1 X-28.306 Y33.735 E9.98705
G1 X-28.607 Y32.905 E10.04211
G1 X-28.832 Y32.051 E10.09718
G1 X-28.978 Y31.18 E10.15226
G1 X-29.05 Y30 E10.22598
G1 X-29.05 Y-30 E13.96775
G1 X-29.01 Y-30.882 E14.02281
G1 X-28.89 Y-31.757 E14.07789
G1 X-28.692 Y-32.617 E14.13292
G1 X-28.417 Y-33.456 E14.18798
G1 X-28.067 Y-34.267 E14.24307
G1 X-27.645 Y-35.042 E14.2981
G1 X-27.154 Y-35.777 E14.35322
G1 X-26.6 Y-36.464 E14.40826
G1 X-25.985 Y-37.097 E14.4633
G1 X-25.316 Y-37.673 E14.51835
G1 X-24.597 Y-38.186 E14.57344
G1 X-23.834 Y-38.631 E14.62852
G1 X-23.035 Y-39.006 E14.68356
G1 X-22.205 Y-39.307 E14.73862
G1 X-21.351 Y-39.532 E14.7937
G1 X-20.48 Y-39.678 E14.84877
G1 X-19.3 Y-39.75 E14.9225
G1 X-4.401 Y-39.75 E15.85164
G1 X-3.318 Y-39.69 E15.91928
G1 X-3.148 Y-39.671 E15.92995
G1 X-2.276 Y-39.533 E15.98501
G1 X-1.42 Y-39.317 E16.04006
G1 X-.587 Y-39.024 E16.09513
G1 X-.386 Y-38.932 E16.10892
G0 F1350 X0.001 Y-38.756
M205 X5 Y5
G0 F4500 X0.007 Y-38.199
M205 X8 Y8
G1 F1500 X0.514 Y-38.451 E16.14423
G1 X1.317 Y-38.759 E16.19786
G1 X2.145 Y-38.992 E16.2515
G1 X2.991 Y-39.147 E16.30514
G1 X4.218 Y-39.23 E16.38183
G1 X19.288 Y-39.25 E17.32164
G1 X20.147 Y-39.211 E17.37527
G1 X20.999 Y-39.093 E17.42891
G1 X21.836 Y-38.896 E17.48253
G1 X22.651 Y-38.622 E17.53615
G1 X23.437 Y-38.273 E17.58978
G1 X24.188 Y-37.853 E17.64344
G1 X24.896 Y-37.365 E17.69707
G1 X25.556 Y-36.814 E17.75069
G1 X26.162 Y-36.203 E17.80435
G1 X26.708 Y-35.539 E17.85796
G1 X27.19 Y-34.827 E17.91158
G1 X27.605 Y-34.074 E17.9652
G1 X27.947 Y-33.285 E18.01883
G1 X28.215 Y-32.468 E18.07245
G1 X28.405 Y-31.629 E18.1261
G1 X28.517 Y-30.776 E18.17975
G1 X28.55 Y-30 E18.22819
G1 X28.55 Y30 E21.96995
G1 X28.51 Y30.859 E22.02358
G1 X28.39 Y31.711 E22.07724
G1 X28.192 Y32.548 E22.13088
G1 X27.917 Y33.362 E22.18446
G1 X27.568 Y34.148 E22.23809
G1 X27.147 Y34.898 E22.29173
G1 X26.658 Y35.606 E22.34539
G1 X26.106 Y36.265 E22.399
G1 X25.494 Y36.87 E22.45266
G1 X24.829 Y37.415 E22.50628
G1 X24.117 Y37.897 E22.5599
G1 X23.363 Y38.31 E22.61352
G1 X22.573 Y38.651 E22.66718
G1 X21.756 Y38.918 E22.72078
G1 X20.917 Y39.108 E22.77443
G1 X20.064 Y39.218 E22.82806
G1 X19.3 Y39.25 E22.87575
G1 X-19.3 Y39.25 E25.28295
G1 X-20.159 Y39.21 E25.33658
G1 X-21.011 Y39.09 E25.39024
G1 X-21.848 Y38.892 E25.44387
G1 X-22.662 Y38.617 E25.49746
G1 X-23.448 Y38.268 E25.55109
G1 X-24.198 Y37.847 E25.60473
G1 X-24.906 Y37.358 E25.65839
G1 X-25.565 Y36.806 E25.712
G1 X-26.17 Y36.194 E25.76566
G1 X-26.715 Y35.529 E25.81928
G1 X-27.197 Y34.817 E25.8729
G1 X-27.61 Y34.063 E25.92652
G1 X-27.951 Y33.273 E25.98018
G1 X-28.218 Y32.456 E26.03378
G1 X-28.408 Y31.617 E26.08743
G1 X-28.518 Y30.764 E26.14106
G1 X-28.55 Y30 E26.18875
G1 X-28.55 Y-30 E29.93051
G1 X-28.51 Y-30.859 E29.98414
G1 X-28.39 Y-31.711 E30.0378
G1 X-28.192 Y-32.548 E30.09144
G1 X-27.917 Y-33.362 E30.14502
G1 X-27.568 Y-34.148 E30.19865
G1 X-27.147 Y-34.898 E30.25229
G1 X-26.658 Y-35.606 E30.30595
G1 X-26.106 Y-36.265 E30.35956
G1 X-25.494 Y-36.87 E30.41322
G1 X-24.829 Y-37.415 E30.46684
G1 X-24.117 Y-37.897 E30.52046
G1 X-23.363 Y-38.31 E30.57408
G1 X-22.573 Y-38.651 E30.62774
G1 X-21.756 Y-38.918 E30.68134
G1 X-20.917 Y-39.108 E30.73499
G1 X-20.064 Y-39.218 E30.78862
G1 X-19.3 Y-39.25 E30.83631
G1 X-4.401 Y-39.25 E31.76545
G1 X-3.374 Y-39.193 E31.8296
G1 X-3.204 Y-39.174 E31.84027
G1 X-2.354 Y-39.039 E31.89394
G1 X-1.521 Y-38.825 E31.94757
G1 X-.712 Y-38.535 E32.00117
G1 X-.379 Y-38.379 E32.0241
G0 F1350 X0.007 Y-38.199
M205 X5 Y5
G0 F4500 X-0.084 Y-37.686
M205 X8 Y8
G1 F1500 X-0.001 Y-37.636 E32.03014
G1 X0.046 Y-37.665 E32.03359
G1 X0.799 Y-38.029 E32.08575
G1 X1.584 Y-38.32 E32.13796
G1 X2.392 Y-38.535 E32.1901
G1 X3.217 Y-38.671 E32.24224
G1 X4.218 Y-38.73 E32.30478
G1 X19.288 Y-38.75 E33.24458
G1 X20.124 Y-38.711 E33.29677
G1 X20.952 Y-38.593 E33.34893
G1 X21.765 Y-38.396 E33.4011
G1 X22.555 Y-38.122 E33.45325
G1 X23.316 Y-37.774 E33.50543
G1 X24.04 Y-37.355 E33.5576
G1 X24.72 Y-36.869 E33.60972
G1 X25.351 Y-36.32 E33.66188
G1 X25.927 Y-35.713 E33.71407
G1 X26.442 Y-35.054 E33.76622
G1 X26.892 Y-34.349 E33.81838
G1 X27.273 Y-33.605 E33.87051
G1 X27.581 Y-32.827 E33.92269
G1 X27.813 Y-32.023 E33.97488
G1 X27.967 Y-31.201 E34.02703
G1 X28.05 Y-30 E34.10211
G1 X28.05 Y30 E37.84387
G1 X28.01 Y30.835 E37.89601
G1 X27.89 Y31.663 E37.94818
G1 X27.692 Y32.476 E38.00037
G1 X27.418 Y33.266 E38.05251
G1 X27.069 Y34.026 E38.10467
G1 X26.649 Y34.749 E38.15681
G1 X26.162 Y35.429 E38.20897
G1 X25.612 Y36.06 E38.26117
G1 X25.005 Y36.635 E38.31331
G1 X24.345 Y37.149 E38.36548
G1 X23.639 Y37.598 E38.41766
G1 X22.894 Y37.978 E38.46981
G1 X22.116 Y38.285 E38.52197
G1 X21.312 Y38.516 E38.57414
G1 X20.49 Y38.669 E38.62628
G1 X19.3 Y38.75 E38.70067
G1 X-19.3 Y38.75 E41.10787
G1 X-20.135 Y38.71 E41.16
G1 X-20.963 Y38.59 E41.21218
G1 X-21.776 Y38.392 E41.26436
G1 X-22.566 Y38.118 E41.31651
G1 X-23.326 Y37.769 E41.36866
G1 X-24.049 Y37.349 E41.4208
G1 X-24.729 Y36.862 E41.47297
G1 X-25.36 Y36.312 E41.52517
G1 X-25.935 Y35.705 E41.57731
G1 X-26.449 Y35.045 E41.62948
G1 X-26.898 Y34.339 E41.68165
G1 X-27.278 Y33.594 E41.73381
G1 X-27.585 Y32.816 E41.78597
G1 X-27.816 Y32.012 E41.83814
G1 X-27.969 Y31.19 E41.89028
G1 X-28.05 Y30 E41.96466
G1 X-28.05 Y-30 E45.70643
G1 X-28.01 Y-30.835 E45.75856
G1 X-27.89 Y-31.663 E45.81074
G1 X-27.692 Y-32.476 E45.86292
G1 X-27.418 Y-33.266 E45.91506
G1 X-27.069 Y-34.026 E45.96722
G1 X-26.649 Y-34.749 E46.01936
G1 X-26.162 Y-35.429 E46.07152
G1 X-25.612 Y-36.06 E46.12372
G1 X-25.005 Y-36.635 E46.17587
G1 X-24.345 Y-37.149 E46.22804
G1 X-23.639 Y-37.598 E46.28021
G1 X-22.894 Y-37.978 E46.33237
G1 X-22.116 Y-38.285 E46.38453
G1 X-21.312 Y-38.516 E46.4367
G1 X-20.49 Y-38.669 E46.48884
G1 X-19.3 Y-38.75 E46.56322
G1 X-4.401 Y-38.75 E47.49236
G1 X-3.429 Y-38.696 E47.55307
G1 X-3.259 Y-38.677 E47.56374
G1 X-2.433 Y-38.544 E47.61592
G1 X-1.624 Y-38.334 E47.66804
G1 X-.838 Y-38.046 E47.72024
G1 X-.468 Y-37.869 E47.74582
G0 F1350 X-0.084 Y-37.686
M205 X5 Y5
G0 F4500 X0.348 Y-37.259
M205 X8 Y8
G1 F1500 X1.082 Y-37.606 E47.79645
G1 X1.847 Y-37.878 E47.84709
G1 X2.635 Y-38.074 E47.89773
G1 X3.439 Y-38.192 E47.9484
G1 X4.219 Y-38.23 E47.9971
G1 X19.289 Y-38.25 E48.93691
G1 X20.1 Y-38.211 E48.98755
G1 X20.904 Y-38.093 E49.03822
G1 X21.692 Y-37.896 E49.08888
G1 X22.456 Y-37.622 E49.13949
G1 X23.191 Y-37.275 E49.19018
G1 X23.887 Y-36.857 E49.24081
G1 X24.539 Y-36.373 E49.29145
G1 X25.14 Y-35.827 E49.34209
G1 X25.685 Y-35.225 E49.39273
G1 X26.168 Y-34.571 E49.44343
G1 X26.584 Y-33.874 E49.49405
G1 X26.929 Y-33.139 E49.54469
G1 X27.201 Y-32.374 E49.59532
G1 X27.396 Y-31.585 E49.64601
G1 X27.513 Y-30.782 E49.69661
G1 X27.55 Y-30 E49.74544
G1 X27.55 Y30 E53.4872
G1 X27.51 Y30.811 E53.53784
G1 X27.39 Y31.614 E53.58847
G1 X27.193 Y32.402 E53.63913
G1 X26.918 Y33.167 E53.68982
G1 X26.57 Y33.9 E53.74042
G1 X26.151 Y34.596 E53.79109
G1 X25.666 Y35.247 E53.84171
G1 X25.119 Y35.848 E53.89239
G1 X24.516 Y36.392 E53.94304
G1 X23.862 Y36.874 E53.9937
G1 X23.164 Y37.289 E54.04435
G1 X22.429 Y37.634 E54.09498
G1 X21.663 Y37.904 E54.14563
G1 X20.875 Y38.098 E54.19624
G1 X20.071 Y38.214 E54.2469
G1 X19.3 Y38.25 E54.29503
G1 X-19.3 Y38.25 E56.70224
G1 X-20.111 Y38.21 E56.75287
G1 X-20.914 Y38.09 E56.80351
G1 X-21.702 Y37.893 E56.85416
G1 X-22.467 Y37.618 E56.90486
G1 X-23.2 Y37.27 E56.95546
G1 X-23.896 Y36.851 E57.00612
G1 X-24.547 Y36.366 E57.05675
G1 X-25.148 Y35.819 E57.10743
G1 X-25.692 Y35.216 E57.15807
G1 X-26.174 Y34.562 E57.20874
G1 X-26.589 Y33.864 E57.25938
G1 X-26.934 Y33.129 E57.31002
G1 X-27.204 Y32.363 E57.36067
G1 X-27.398 Y31.575 E57.41128
G1 X-27.514 Y30.771 E57.46194
G1 X-27.55 Y30 E57.51007
G1 X-27.55 Y-30 E61.25183
G1 X-27.51 Y-30.811 E61.30247
G1 X-27.39 Y-31.614 E61.35311
G1 X-27.193 Y-32.402 E61.40376
G1 X-26.918 Y-33.167 E61.45446
G1 X-26.57 Y-33.9 E61.50506
G1 X-26.151 Y-34.596 E61.55572
G1 X-25.666 Y-35.247 E61.60635
G1 X-25.119 Y-35.848 E61.65703
G1 X-24.516 Y-36.392 E61.70767
G1 X-23.862 Y-36.874 E61.75834
G1 X-23.164 Y-37.289 E61.80898
G1 X-22.429 Y-37.634 E61.85962
G1 X-21.663 Y-37.904 E61.91027
G1 X-20.875 Y-38.098 E61.96087
G1 X-20.071 Y-38.214 E62.01153
G1 X-19.3 Y-38.25 E62.05967
G1 X-4.401 Y-38.25 E62.98881
G1 X-3.485 Y-38.199 E63.04602
G1 X-3.315 Y-38.18 E63.05669
G1 X-2.513 Y-38.05 E63.10736
G1 X-1.728 Y-37.842 E63.158
G1 X-.967 Y-37.558 E63.20866
G1 X-.238 Y-37.2 E63.25931
G1 X-0.017 Y-37.064 E63.27549
G0 F1350 X0.002 Y-37.052
G0 X0.348 Y-37.259
M205 X5 Y5
G0 F4500 X0.647 Y-36.852
M205 X8 Y8
G1 F1500 X1.363 Y-37.18 E63.3246
G1 X2.108 Y-37.434 E63.37369
G1 X2.875 Y-37.611 E63.42278
G1 X3.656 Y-37.709 E63.47187
G1 X4.22 Y-37.73 E63.50706
G1 X19.29 Y-37.75 E64.44687
G1 X20.076 Y-37.711 E64.49595
G1 X20.854 Y-37.593 E64.54502
G1 X21.616 Y-37.396 E64.5941
G1 X22.354 Y-37.123 E64.64318
G1 X23.061 Y-36.776 E64.69229
G1 X23.729 Y-36.36 E64.74137
G1 X24.351 Y-35.878 E64.79044
G1 X24.922 Y-35.335 E64.83958
G1 X25.434 Y-34.737 E64.88867
G1 X25.883 Y-34.09 E64.93779
G1 X26.264 Y-33.402 E64.98683
G1 X26.573 Y-32.678 E65.03592
G1 X26.807 Y-31.926 E65.08504
G1 X26.963 Y-31.155 E65.13409
G1 X27.05 Y-30 E65.20633
G1 X27.05 Y30 E68.94809
G1 X27.01 Y30.786 E68.99717
G1 X26.891 Y31.564 E69.04625
G1 X26.693 Y32.326 E69.09535
G1 X26.419 Y33.064 E69.14445
G1 X26.071 Y33.77 E69.19353
G1 X25.654 Y34.438 E69.24264
G1 X25.171 Y35.059 E69.2917
G1 X24.627 Y35.629 E69.34084
G1 X24.029 Y36.14 E69.3899
G1 X23.382 Y36.588 E69.43897
G1 X22.692 Y36.968 E69.4881
G1 X21.968 Y37.276 E69.53716
G1 X21.216 Y37.509 E69.58626
G1 X20.445 Y37.665 E69.63532
G1 X19.3 Y37.75 E69.70692
G1 X-19.3 Y37.75 E72.11412
G1 X-20.086 Y37.71 E72.1632
G1 X-20.864 Y37.591 E72.21228
G1 X-21.626 Y37.393 E72.26138
G1 X-22.364 Y37.119 E72.31047
G1 X-23.07 Y36.771 E72.35956
G1 X-23.738 Y36.354 E72.40867
G1 X-24.359 Y35.871 E72.45773
G1 X-24.929 Y35.327 E72.50687
G1 X-25.44 Y34.729 E72.55592
G1 X-25.888 Y34.082 E72.605
G1 X-26.268 Y33.392 E72.65413
G1 X-26.576 Y32.668 E72.70319
G1 X-26.809 Y31.916 E72.75229
G1 X-26.965 Y31.145 E72.80134
G1 X-27.05 Y30 E72.87295
G1 X-27.05 Y-30 E76.61471
G1 X-27.01 Y-30.786 E76.66379
G1 X-26.891 Y-31.564 E76.71287
G1 X-26.693 Y-32.326 E76.76197
G1 X-26.419 Y-33.064 E76.81107
G1 X-26.071 Y-33.77 E76.86015
G1 X-25.654 Y-34.438 E76.90926
G1 X-25.171 Y-35.059 E76.95832
G1 X-24.627 Y-35.629 E77.00746
G1 X-24.029 Y-36.14 E77.05651
G1 X-23.382 Y-36.588 E77.10559
G1 X-22.692 Y-36.968 E77.15472
G1 X-21.968 Y-37.276 E77.20378
G1 X-21.216 Y-37.509 E77.25288
G1 X-20.445 Y-37.665 E77.30193
G1 X-19.3 Y-37.75 E77.37354
G1 X-4.401 Y-37.75 E78.30268
G1 X-3.54 Y-37.702 E78.35646
G1 X-3.37 Y-37.683 E78.36712
G1 X-2.593 Y-37.556 E78.41622
G1 X-1.833 Y-37.351 E78.46531
G1 X-1.098 Y-37.07 E78.51439
G1 X-.395 Y-36.715 E78.5635
G1 X-0.007 Y-36.467 E78.59222
G1 X0.28 Y-36.636 E78.61299
G0 F1350 X0.647 Y-36.852
M205 X5 Y5
G0 F4500 X0.945 Y-36.443
M205 X8 Y8
G1 F1500 X1.641 Y-36.752 E78.66048
G1 X2.365 Y-36.986 E78.70793
G1 X3.11 Y-37.143 E78.75541
G1 X4.22 Y-37.23 E78.82484
G1 X19.29 Y-37.25 E79.76465
G1 X20.051 Y-37.211 E79.81217
G1 X20.803 Y-37.093 E79.85964
G1 X21.538 Y-36.896 E79.9071
G1 X22.249 Y-36.623 E79.95459
G1 X22.927 Y-36.277 E80.00206
G1 X23.566 Y-35.862 E80.04958
G1 X24.157 Y-35.383 E80.09702
G1 X24.694 Y-34.844 E80.14447
G1 X25.173 Y-34.251 E80.19201
G1 X25.586 Y-33.612 E80.23946
G1 X25.93 Y-32.933 E80.28692
G1 X26.201 Y-32.222 E80.33438
G1 X26.396 Y-31.486 E80.38186
G1 X26.513 Y-30.733 E80.42938
G1 X26.55 Y-30 E80.47515
G1 X26.55 Y30 E84.21692
G1 X26.51 Y30.76 E84.26438
G1 X26.391 Y31.512 E84.31186
G1 X26.193 Y32.247 E84.35933
G1 X25.919 Y32.958 E84.40685
G1 X25.573 Y33.636 E84.45432
G1 X25.157 Y34.273 E84.50176
G1 X24.676 Y34.864 E84.54928
G1 X24.137 Y35.401 E84.59673
G1 X23.544 Y35.878 E84.64419
G1 X22.904 Y36.291 E84.69169
G1 X22.224 Y36.634 E84.73919
G1 X21.512 Y36.904 E84.78668
G1 X20.776 Y37.098 E84.83414
G1 X20.024 Y37.214 E84.88159
G1 X19.3 Y37.25 E84.9268
G1 X-19.3 Y37.25 E87.334
G1 X-20.06 Y37.21 E87.38146
G1 X-20.812 Y37.091 E87.42894
G1 X-21.547 Y36.893 E87.47642
G1 X-22.258 Y36.619 E87.52393
G1 X-22.936 Y36.273 E87.5714
G1 X-23.573 Y35.857 E87.61885
G1 X-24.164 Y35.376 E87.66637
G1 X-24.701 Y34.837 E87.71382
G1 X-25.178 Y34.244 E87.76128
G1 X-25.591 Y33.604 E87.80878
G1 X-25.934 Y32.924 E87.85628
G1 X-26.204 Y32.212 E87.90376
G1 X-26.398 Y31.476 E87.95123
G1 X-26.514 Y30.724 E87.99868
G1 X-26.55 Y30 E88.04389
G1 X-26.55 Y-30 E91.78565
G1 X-26.51 Y-30.76 E91.83311
G1 X-26.391 Y-31.512 E91.88059
G1 X-26.193 Y-32.247 E91.92807
G1 X-25.919 Y-32.958 E91.97558
G1 X-25.573 Y-33.636 E92.02305
G1 X-25.157 Y-34.273 E92.0705
G1 X-24.676 Y-34.864 E92.11802
G1 X-24.137 Y-35.401 E92.16547
G1 X-23.544 Y-35.878 E92.21293
G1 X-22.904 Y-36.291 E92.26043
G1 X-22.224 Y-36.634 E92.30793
G1 X-21.512 Y-36.904 E92.35541
G1 X-20.776 Y-37.098 E92.40288
G1 X-20.024 Y-37.214 E92.45033
G1 X-19.3 Y-37.25 E92.49554
G1 X-4.401 Y-37.25 E93.42468
G1 X-3.596 Y-37.205 E93.47496
G1 X-3.426 Y-37.186 E93.48563
G1 X-2.675 Y-37.062 E93.5331
G1 X-1.941 Y-36.86 E93.58057
G1 X-1.232 Y-36.582 E93.62807
G1 X-.556 Y-36.231 E93.67557
G1 X0.005 Y-35.86 E93.71751
G1 X0.285 Y-36.063 E93.73908
G1 X0.576 Y-36.231 E93.76003
G0 F1350 X0.945 Y-36.443
M205 X5 Y5
G0 F4500 X1.241 Y-36.032
M205 X8 Y8
G1 F1500 X1.916 Y-36.321 E93.80582
G1 X2.619 Y-36.535 E93.85165
G1 X3.341 Y-36.671 E93.89747
G1 X4.221 Y-36.73 E93.95247
G1 X19.291 Y-36.75 E94.89228
G1 X20.025 Y-36.711 E94.93812
G1 X20.75 Y-36.593 E94.98393
G1 X21.457 Y-36.396 E95.0297
G1 X22.14 Y-36.124 E95.07554
G1 X22.788 Y-35.779 E95.12133
G1 X23.395 Y-35.366 E95.16711
G1 X23.954 Y-34.889 E95.21294
G1 X24.458 Y-34.354 E95.25878
G1 X24.901 Y-33.768 E95.30459
G1 X25.277 Y-33.137 E95.35039
G1 X25.582 Y-32.469 E95.39619
G1 X25.813 Y-31.772 E95.44198
G1 X25.967 Y-31.053 E95.48784
G1 X26.05 Y-30 E95.55371
G1 X26.05 Y30 E99.29547
G1 X26.01 Y30.733 E99.34125
G1 X25.891 Y31.458 E99.38707
G1 X25.693 Y32.166 E99.43292
G1 X25.42 Y32.848 E99.47873
G1 X25.074 Y33.496 E99.52454
G1 X24.66 Y34.103 E99.57036
G1 X24.183 Y34.661 E99.61614
G1 X23.647 Y35.164 E99.66198
