;FLAVOR:Marlin
;TIME:5179
;Filament used: 5.69978m
;Layer height: 0.2
;MINX:-29.05
;MINY:-39.75
;MINZ:0.3
;MAXX:29.05
;MAXY:39.75
;MAXZ:35.91
;Generated with Cura_SteamEngine 4.4.0
M140 S60
M105
M190 S60
M104 S210
M105
M109 S210
M82 ;absolute extrusion mode
G28 ;Home
G1 Z15.0 F6000 ;Move the platform down 15mm
;Prime the extruder
G92 E0
G1 F200 E3
G92 E0
G92 E0
G92 E0
G1 F1500 E-6.5
;LAYER_COUNT:169
;LAYER:0
M107
M204 S800
M205 X5 Y5
G0 F4500 X0.014 Y-38.733 Z0.3
M205 X8 Y8
;TYPE:SKIRT
G1 F1500 E0
G1 X0.435 Y-38.939 E0.02923
G1 X0.526 Y-38.977 E0.03538
G1 X1.355 Y-39.28 E0.09042
G1 X2.209 Y-39.507 E0.14553
G1 X3.079 Y-39.655 E0.20057
G1 X4.27 Y-39.73 E0.27499
G1 X19.14 Y-39.75 E1.20232
G1 X20.022 Y-39.711 E1.25738
G1 X20.897 Y-39.593 E1.31244
G1 X21.758 Y-39.396 E1.36752
G1 X22.597 Y-39.122 E1.42256
G1 X23.408 Y-38.773 E1.47762
G1 X24.184 Y-38.352 E1.53268
G1 X24.919 Y-37.862 E1.58777
G1 X25.607 Y-37.308 E1.64286
G1 X26.024 Y-36.918 E1.67846
G1 X26.171 Y-36.772 E1.69138
G1 X26.768 Y-36.122 E1.74642
G1 X27.305 Y-35.421 E1.80149
G1 X27.776 Y-34.674 E1.85656
G1 X28.177 Y-33.887 E1.91165
G1 X28.505 Y-33.067 E1.96672
G1 X28.758 Y-32.221 E2.02179
G1 X28.934 Y-31.356 E2.07684
G1 X29.03 Y-30.478 E2.13192
G1 X29.05 Y-29.854 E2.17085
G1 X29.05 Y29.854 E5.89441
G1 X29.01 Y30.736 E5.94947
G1 X28.89 Y31.611 E6.00455
G1 X28.692 Y32.471 E6.05958
G1 X28.417 Y33.31 E6.11465
G1 X28.067 Y34.121 E6.16973
G1 X27.645 Y34.896 E6.22476
G1 X27.154 Y35.631 E6.27989
G1 X26.6 Y36.318 E6.33492
G1 X26.194 Y36.748 E6.3718
G1 X26.048 Y36.894 E6.38468
G1 X25.396 Y37.49 E6.43977
G1 X24.693 Y38.024 E6.49482
G1 X23.945 Y38.492 E6.54985
G1 X23.157 Y38.89 E6.6049
G1 X22.336 Y39.216 E6.65999
G1 X21.489 Y39.466 E6.71507
G1 X20.623 Y39.639 E6.77014
G1 X19.745 Y39.732 E6.8252
G1 X19.154 Y39.75 E6.86207
G1 X-19.154 Y39.75 E9.25107
G1 X-20.036 Y39.71 E9.30613
G1 X-20.911 Y39.59 E9.3612
G1 X-21.771 Y39.392 E9.41624
G1 X-22.61 Y39.117 E9.4713
G1 X-23.421 Y38.767 E9.52639
G1 X-24.196 Y38.345 E9.58142
G1 X-24.931 Y37.854 E9.63654
G1 X-25.618 Y37.3 E9.69158
G1 X-26.048 Y36.894 E9.72846
G1 X-26.194 Y36.748 E9.74134
G1 X-26.79 Y36.096 E9.79642
G1 X-27.324 Y35.393 E9.85148
G1 X-27.792 Y34.645 E9.9065
G1 X-28.19 Y33.857 E9.96156
G1 X-28.516 Y33.036 E10.01665
G1 X-28.766 Y32.189 E10.07172
G1 X-28.939 Y31.323 E10.12679
G1 X-29.032 Y30.445 E10.18185
G1 X-29.05 Y29.854 E10.21873
G1 X-29.05 Y-29.854 E13.94228
G1 X-29.01 Y-30.736 E13.99734
G1 X-28.89 Y-31.611 E14.05242
G1 X-28.692 Y-32.471 E14.10746
G1 X-28.417 Y-33.31 E14.16252
G1 X-28.067 Y-34.121 E14.2176
G1 X-27.645 Y-34.896 E14.27264
G1 X-27.154 Y-35.631 E14.32776
G1 X-26.6 Y-36.318 E14.3828
G1 X-26.194 Y-36.748 E14.41968
G1 X-26.048 Y-36.894 E14.43255
G1 X-25.396 Y-37.49 E14.48764
G1 X-24.693 Y-38.024 E14.5427
G1 X-23.945 Y-38.492 E14.59772
G1 X-23.157 Y-38.89 E14.65278
G1 X-22.336 Y-39.216 E14.70786
G1 X-21.489 Y-39.466 E14.76294
G1 X-20.623 Y-39.639 E14.81801
G1 X-19.745 Y-39.732 E14.87307
G1 X-19.154 Y-39.75 E14.90995
G1 X-4.402 Y-39.75 E15.82992
G1 X-3.52 Y-39.71 E15.88498
G1 X-2.645 Y-39.59 E15.94006
G1 X-2.059 Y-39.464 E15.97744
G1 X-1.857 Y-39.414 E15.99042
G1 X-1.011 Y-39.164 E16.04543
G1 X-.374 Y-38.91 E16.0882
G0 F1350 X-.19 Y-38.837
G0 X0.014 Y-38.733
M205 X5 Y5
G0 F4500 X-.355 Y-38.363
M205 X8 Y8
G1 F1500 X0.007 Y-38.177 E16.11358
G1 X0.628 Y-38.478 E16.15662
G1 X0.719 Y-38.516 E16.16277
G1 X1.527 Y-38.81 E16.21639
G1 X2.359 Y-39.028 E16.27002
G1 X3.207 Y-39.167 E16.32361
G1 X4.271 Y-39.23 E16.39008
G1 X19.141 Y-39.25 E17.31742
G1 X20 Y-39.211 E17.37104
G1 X20.851 Y-39.093 E17.42462
G1 X21.689 Y-38.896 E17.47831
G1 X22.504 Y-38.622 E17.53193
G1 X23.29 Y-38.273 E17.58556
G1 X24.041 Y-37.853 E17.63922
G1 X24.749 Y-37.365 E17.69285
G1 X25.671 Y-36.563 E17.76905
G1 X25.818 Y-36.417 E17.78197
G1 X26.4 Y-35.783 E17.83565
G1 X26.92 Y-35.098 E17.88928
G1 X27.374 Y-34.368 E17.94289
G1 X27.758 Y-33.599 E17.99649
G1 X28.069 Y-32.797 E18.05014
G1 X28.305 Y-31.97 E18.10377
G1 X28.462 Y-31.124 E18.15743
G1 X28.55 Y-29.854 E18.23682
G1 X28.55 Y29.854 E21.96037
G1 X28.51 Y30.713 E22.014
G1 X28.39 Y31.565 E22.06766
G1 X28.192 Y32.402 E22.1213
G1 X27.917 Y33.216 E22.17488
G1 X27.568 Y34.002 E22.22851
G1 X27.147 Y34.752 E22.28215
G1 X26.658 Y35.46 E22.33581
G1 X25.841 Y36.395 E22.41324
G1 X25.695 Y36.541 E22.42612
G1 X25.059 Y37.12 E22.47976
G1 X24.372 Y37.638 E22.53341
G1 X23.64 Y38.089 E22.58703
G1 X22.87 Y38.471 E22.64064
G1 X22.067 Y38.779 E22.69427
G1 X21.239 Y39.012 E22.74791
G1 X20.393 Y39.167 E22.80155
G1 X19.154 Y39.25 E22.87899
G1 X-19.154 Y39.25 E25.26798
G1 X-20.013 Y39.21 E25.32161
G1 X-20.865 Y39.09 E25.37527
G1 X-21.702 Y38.892 E25.42891
G1 X-22.516 Y38.617 E25.48249
G1 X-23.302 Y38.268 E25.53612
G1 X-24.052 Y37.847 E25.58976
G1 X-24.76 Y37.358 E25.64342
G1 X-25.695 Y36.541 E25.72085
G1 X-25.841 Y36.395 E25.73373
G1 X-26.42 Y35.759 E25.78736
G1 X-26.938 Y35.072 E25.84102
G1 X-27.389 Y34.34 E25.89464
G1 X-27.771 Y33.57 E25.94824
G1 X-28.079 Y32.767 E26.00188
G1 X-28.312 Y31.939 E26.05552
G1 X-28.467 Y31.093 E26.10916
G1 X-28.55 Y29.854 E26.1866
G1 X-28.55 Y-29.854 E29.91015
G1 X-28.51 Y-30.713 E29.96378
G1 X-28.39 Y-31.565 E30.01744
G1 X-28.192 Y-32.402 E30.07107
G1 X-27.917 Y-33.216 E30.12466
G1 X-27.568 Y-34.002 E30.17829
G1 X-27.147 Y-34.752 E30.23193
G1 X-26.658 Y-35.46 E30.28559
G1 X-25.841 Y-36.395 E30.36302
G1 X-25.695 Y-36.541 E30.3759
G1 X-25.059 Y-37.12 E30.42953
G1 X-24.372 Y-37.638 E30.48319
G1 X-23.64 Y-38.089 E30.53681
G1 X-22.87 Y-38.471 E30.59041
G1 X-22.067 Y-38.779 E30.64405
G1 X-21.239 Y-39.012 E30.69769
G1 X-20.393 Y-39.167 E30.75133
G1 X-19.154 Y-39.25 E30.82877
G1 X-4.402 Y-39.25 E31.74874
G1 X-3.543 Y-39.21 E31.80237
G1 X-2.691 Y-39.09 E31.85603
G1 X-2.179 Y-38.979 E31.8887
G1 X-1.977 Y-38.929 E31.90168
G1 X-1.153 Y-38.684 E31.95529
G1 X-.75 Y-38.522 E31.98237
G0 F1350 X-.355 Y-38.363
M205 X5 Y5
G0 F4500 X-.521 Y-37.889
M205 X8 Y8
G1 F1500 X-0.005 Y-37.619 E32.01869
G1 X0.008 Y-37.627 E32.01964
G1 X0.82 Y-38.016 E32.07579
G1 X0.911 Y-38.054 E32.08194
G1 X1.698 Y-38.339 E32.13414
G1 X2.508 Y-38.548 E32.18631
G1 X3.334 Y-38.678 E32.23845
G1 X4.271 Y-38.73 E32.29698
G1 X19.141 Y-38.75 E33.22431
G1 X19.977 Y-38.711 E33.27651
G1 X20.805 Y-38.593 E33.32866
G1 X21.618 Y-38.396 E33.38083
G1 X22.408 Y-38.122 E33.43298
G1 X23.169 Y-37.774 E33.48516
G1 X23.893 Y-37.355 E33.53733
G1 X24.573 Y-36.869 E33.58945
G1 X25.319 Y-36.208 E33.65161
G1 X25.466 Y-36.062 E33.66453
G1 X26.031 Y-35.445 E33.7167
G1 X26.534 Y-34.777 E33.76885
G1 X26.971 Y-34.064 E33.821
G1 X27.338 Y-33.312 E33.87319
G1 X27.631 Y-32.529 E33.92532
G1 X27.848 Y-31.721 E33.9775
G1 X27.988 Y-30.896 E34.02968
G1 X28.05 Y-29.854 E34.09478
G1 X28.05 Y29.854 E37.81834
G1 X28.01 Y30.689 E37.87047
G1 X27.89 Y31.517 E37.92264
G1 X27.692 Y32.33 E37.97483
G1 X27.418 Y33.12 E38.02697
G1 X27.069 Y33.88 E38.07913
G1 X26.649 Y34.603 E38.13127
G1 X26.162 Y35.283 E38.18343
G1 X25.487 Y36.041 E38.24673
G1 X25.341 Y36.187 E38.25961
G1 X24.722 Y36.75 E38.31179
G1 X24.052 Y37.25 E38.36392
G1 X23.338 Y37.685 E38.41606
G1 X22.585 Y38.049 E38.46822
G1 X21.8 Y38.34 E38.52043
G1 X20.992 Y38.555 E38.57257
G1 X20.167 Y38.691 E38.62472
G1 X19.154 Y38.75 E38.688
G1 X-19.154 Y38.75 E41.07699
G1 X-19.989 Y38.71 E41.12912
G1 X-20.817 Y38.59 E41.1813
G1 X-21.63 Y38.392 E41.23348
G1 X-22.42 Y38.118 E41.28563
G1 X-23.18 Y37.769 E41.33778
G1 X-23.903 Y37.349 E41.38992
G1 X-24.583 Y36.862 E41.44208
G1 X-25.341 Y36.187 E41.50538
G1 X-25.487 Y36.041 E41.51826
G1 X-26.05 Y35.422 E41.57044
G1 X-26.55 Y34.752 E41.62257
G1 X-26.985 Y34.038 E41.67471
G1 X-27.349 Y33.285 E41.72687
G1 X-27.64 Y32.5 E41.77908
G1 X-27.855 Y31.692 E41.83122
G1 X-27.991 Y30.867 E41.88337
G1 X-28.05 Y29.854 E41.94665
G1 X-28.05 Y-29.854 E45.6702
G1 X-28.01 Y-30.689 E45.72234
G1 X-27.89 Y-31.517 E45.77451
G1 X-27.692 Y-32.33 E45.8267
G1 X-27.418 Y-33.12 E45.87884
G1 X-27.069 Y-33.88 E45.931
G1 X-26.649 Y-34.603 E45.98314
G1 X-26.162 Y-35.283 E46.0353
G1 X-25.487 Y-36.041 E46.0986
G1 X-25.341 Y-36.187 E46.11147
G1 X-24.722 Y-36.75 E46.16365
G1 X-24.052 Y-37.25 E46.21579
G1 X-23.338 Y-37.685 E46.26793
G1 X-22.585 Y-38.049 E46.32009
G1 X-21.8 Y-38.34 E46.3723
G1 X-20.992 Y-38.555 E46.42444
G1 X-20.167 Y-38.691 E46.47658
G1 X-19.154 Y-38.75 E46.53986
G1 X-4.402 Y-38.75 E47.45984
G1 X-3.567 Y-38.71 E47.51197
G1 X-2.739 Y-38.59 E47.56415
G1 X-2.3 Y-38.494 E47.59217
G1 X-2.098 Y-38.444 E47.60515
G1 X-1.296 Y-38.204 E47.65736
G1 X-.915 Y-38.049 E47.68301
G0 F1350 X-.521 Y-37.889
M205 X5 Y5
G0 F4500 X-.689 Y-37.416
M205 X8 Y8
G1 F1500 X0.012 Y-37.043 E47.73253
G1 X0.31 Y-37.221 E47.75417
G1 X1.013 Y-37.555 E47.80271
G1 X1.104 Y-37.593 E47.80886
G1 X1.868 Y-37.869 E47.85952
G1 X2.655 Y-38.068 E47.91014
G1 X3.458 Y-38.189 E47.96079
G1 X4.272 Y-38.23 E48.01161
G1 X19.142 Y-38.25 E48.93895
G1 X19.953 Y-38.211 E48.98958
G1 X20.757 Y-38.093 E49.04026
G1 X21.545 Y-37.896 E49.09092
G1 X22.309 Y-37.622 E49.14153
G1 X23.043 Y-37.275 E49.19216
G1 X23.74 Y-36.857 E49.24285
G1 X24.392 Y-36.373 E49.29349
G1 X24.967 Y-35.854 E49.34179
G1 X25.114 Y-35.708 E49.35471
G1 X25.661 Y-35.108 E49.40535
G1 X26.147 Y-34.457 E49.45601
G1 X26.566 Y-33.761 E49.50667
G1 X26.915 Y-33.028 E49.5573
G1 X27.19 Y-32.264 E49.60794
G1 X27.389 Y-31.476 E49.65862
G1 X27.509 Y-30.673 E49.70926
G1 X27.55 Y-29.854 E49.7604
G1 X27.55 Y29.854 E53.48395
G1 X27.51 Y30.665 E53.53459
G1 X27.39 Y31.468 E53.58522
G1 X27.193 Y32.256 E53.63588
G1 X26.918 Y33.021 E53.68657
G1 X26.57 Y33.754 E53.73718
G1 X26.151 Y34.45 E53.78784
G1 X25.666 Y35.101 E53.83846
G1 X25.134 Y35.688 E53.88787
G1 X24.988 Y35.834 E53.90075
G1 X24.386 Y36.379 E53.95139
G1 X23.733 Y36.862 E54.00204
G1 X23.036 Y37.279 E54.05269
G1 X22.302 Y37.626 E54.10332
G1 X21.537 Y37.898 E54.15396
G1 X20.749 Y38.094 E54.2046
G1 X19.945 Y38.212 E54.25527
G1 X19.154 Y38.25 E54.30466
G1 X-19.154 Y38.25 E56.69365
G1 X-19.965 Y38.21 E56.74429
G1 X-20.768 Y38.09 E56.79492
G1 X-21.556 Y37.893 E56.84558
G1 X-22.321 Y37.618 E56.89627
G1 X-23.054 Y37.27 E56.94687
G1 X-23.75 Y36.851 E56.99754
G1 X-24.401 Y36.366 E57.04816
G1 X-24.988 Y35.834 E57.09757
G1 X-25.134 Y35.688 E57.11044
G1 X-25.679 Y35.086 E57.16109
G1 X-26.162 Y34.433 E57.21174
G1 X-26.579 Y33.736 E57.26239
G1 X-26.926 Y33.002 E57.31302
G1 X-27.198 Y32.237 E57.36366
G1 X-27.394 Y31.449 E57.41429
G1 X-27.512 Y30.645 E57.46497
G1 X-27.55 Y29.854 E57.51436
G1 X-27.55 Y-29.854 E61.23791
G1 X-27.51 Y-30.665 E61.28855
G1 X-27.39 Y-31.468 E61.33918
G1 X-27.193 Y-32.256 E61.38984
G1 X-26.918 Y-33.021 E61.44053
G1 X-26.57 Y-33.754 E61.49114
G1 X-26.151 Y-34.45 E61.5418
G1 X-25.666 Y-35.101 E61.59243
G1 X-25.134 Y-35.688 E61.64183
G1 X-24.988 Y-35.834 E61.65471
G1 X-24.386 Y-36.379 E61.70535
G1 X-23.733 Y-36.862 E61.756
G1 X-23.036 Y-37.279 E61.80665
G1 X-22.302 Y-37.626 E61.85728
G1 X-21.537 Y-37.898 E61.90792
G1 X-20.749 Y-38.094 E61.95856
G1 X-19.945 Y-38.212 E62.00923
G1 X-19.154 Y-38.25 E62.05862
G1 X-4.402 Y-38.25 E62.97859
G1 X-3.591 Y-38.21 E63.02923
G1 X-2.42 Y-38.008 E63.10334
G1 X-2.218 Y-37.958 E63.11631
G1 X-1.44 Y-37.725 E63.16696
G1 X-1.082 Y-37.578 E63.1911
G0 F1350 X-.689 Y-37.416
M205 X5 Y5
G0 F4500 X-.858 Y-36.942
M205 X8 Y8
G1 F1500 X-.166 Y-36.567 E63.24018
G1 X-0.001 Y-36.455 E63.25262
G1 X0.609 Y-36.814 E63.29676
G1 X1.206 Y-37.094 E63.33788
G1 X1.297 Y-37.132 E63.34403
G1 X2.037 Y-37.398 E63.39307
G1 X2.801 Y-37.587 E63.44215
G1 X3.581 Y-37.698 E63.49128
G1 X4.273 Y-37.73 E63.53448
G1 X19.143 Y-37.75 E64.46182
G1 X19.929 Y-37.711 E64.5109
G1 X20.707 Y-37.593 E64.55997
G1 X21.469 Y-37.396 E64.60905
G1 X22.207 Y-37.123 E64.65812
G1 X22.914 Y-36.776 E64.70724
G1 X23.582 Y-36.36 E64.75632
G1 X24.204 Y-35.878 E64.80539
G1 X24.614 Y-35.499 E64.84021
G1 X24.761 Y-35.353 E64.85313
G1 X25.291 Y-34.77 E64.90226
G1 X25.759 Y-34.137 E64.95136
G1 X26.16 Y-33.46 E65.00043
G1 X26.49 Y-32.746 E65.04948
G1 X26.747 Y-32.001 E65.09863
G1 X26.926 Y-31.235 E65.14768
G1 X27.027 Y-30.454 E65.19679
G1 X27.05 Y-29.854 E65.23424
G1 X27.05 Y29.854 E68.9578
G1 X27.01 Y30.64 E69.00688
G1 X26.891 Y31.418 E69.05596
G1 X26.693 Y32.18 E69.10506
G1 X26.419 Y32.918 E69.15415
G1 X26.071 Y33.624 E69.20324
G1 X25.654 Y34.292 E69.25235
G1 X25.171 Y34.913 E69.30141
G1 X24.78 Y35.334 E69.33724
G1 X24.634 Y35.48 E69.35012
G1 X24.05 Y36.008 E69.39921
G1 X23.415 Y36.473 E69.4483
G1 X22.737 Y36.872 E69.49736
G1 X22.021 Y37.2 E69.54647
G1 X21.276 Y37.454 E69.59556
G1 X20.509 Y37.631 E69.64465
G1 X19.728 Y37.729 E69.69373
G1 X19.154 Y37.75 E69.72955
G1 X-19.154 Y37.75 E72.11855
G1 X-19.94 Y37.71 E72.16763
G1 X-20.718 Y37.591 E72.21671
G1 X-21.48 Y37.393 E72.26581
G1 X-22.218 Y37.119 E72.3149
G1 X-22.924 Y36.771 E72.36399
G1 X-23.592 Y36.354 E72.4131
G1 X-24.213 Y35.871 E72.46216
G1 X-24.634 Y35.48 E72.49799
G1 X-24.78 Y35.334 E72.51087
G1 X-25.308 Y34.75 E72.55996
G1 X-25.773 Y34.115 E72.60905
G1 X-26.172 Y33.437 E72.65811
G1 X-26.5 Y32.721 E72.70722
G1 X-26.754 Y31.976 E72.75631
G1 X-26.931 Y31.209 E72.8054
G1 X-27.029 Y30.428 E72.85448
G1 X-27.05 Y29.854 E72.8903
G1 X-27.05 Y-29.854 E76.61386
G1 X-27.01 Y-30.64 E76.66294
G1 X-26.891 Y-31.418 E76.71202
G1 X-26.693 Y-32.18 E76.76112
G1 X-26.419 Y-32.918 E76.81021
G1 X-26.071 Y-33.624 E76.8593
G1 X-25.654 Y-34.292 E76.90841
G1 X-25.171 Y-34.913 E76.95747
G1 X-24.78 Y-35.334 E76.9933
G1 X-24.634 Y-35.48 E77.00618
G1 X-24.05 Y-36.008 E77.05528
G1 X-23.415 Y-36.473 E77.10436
G1 X-22.737 Y-36.872 E77.15342
G1 X-22.021 Y-37.2 E77.20253
G1 X-21.276 Y-37.454 E77.25162
G1 X-20.509 Y-37.631 E77.30071
G1 X-19.728 Y-37.729 E77.3498
G1 X-19.154 Y-37.75 E77.38562
G1 X-4.402 Y-37.75 E78.30559
G1 X-3.616 Y-37.71 E78.35467
G1 X-2.54 Y-37.523 E78.42278
G1 X-2.338 Y-37.473 E78.43576
G1 X-1.584 Y-37.245 E78.48488
G1 X-1.251 Y-37.106 E78.50739
G0 F1350 X-.858 Y-36.942
M205 X5 Y5
G0 F4500 X-1.028 Y-36.47
M205 X8 Y8
G1 F1500 X-.362 Y-36.101 E78.55487
G1 X0.002 Y-35.847 E78.58255
G1 X0.247 Y-36.025 E78.60143
G1 X0.907 Y-36.405 E78.64893
G1 X1.398 Y-36.632 E78.68266
G1 X1.489 Y-36.67 E78.68881
G1 X2.206 Y-36.926 E78.73629
G1 X2.946 Y-37.106 E78.78379
G1 X3.701 Y-37.207 E78.83129
G1 X4.273 Y-37.23 E78.86699
G1 X19.143 Y-37.25 E79.79432
G1 X19.904 Y-37.211 E79.84184
G1 X20.656 Y-37.093 E79.88932
G1 X21.391 Y-36.896 E79.93677
G1 X22.102 Y-36.623 E79.98427
G1 X22.78 Y-36.277 E80.03174
G1 X23.418 Y-35.862 E80.0792
G1 X24.262 Y-35.144 E80.1483
G1 X24.409 Y-34.998 E80.16122
G1 X24.92 Y-34.434 E80.20869
G1 X25.37 Y-33.819 E80.25621
G1 X25.752 Y-33.161 E80.30366
G1 X26.063 Y-32.466 E80.35114
G1 X26.3 Y-31.743 E80.39859
G1 X26.459 Y-30.998 E80.4461
G1 X26.54 Y-30.241 E80.49357
G1 X26.55 Y-29.854 E80.51772
G1 X26.55 Y29.854 E84.24127
G1 X26.51 Y30.614 E84.28873
G1 X26.391 Y31.366 E84.33621
G1 X26.193 Y32.101 E84.38368
G1 X25.919 Y32.812 E84.4312
G1 X25.573 Y33.49 E84.47867
G1 X25.157 Y34.127 E84.52612
G1 X24.427 Y34.981 E84.59618
G1 X24.281 Y35.127 E84.60906
G1 X23.715 Y35.636 E84.65653
G1 X23.099 Y36.083 E84.70399
G1 X22.439 Y36.463 E84.75149
G1 X21.743 Y36.772 E84.79898
G1 X21.019 Y37.006 E84.84643
G1 X20.274 Y37.163 E84.89391
G1 X19.154 Y37.25 E84.96397
G1 X-19.154 Y37.25 E87.35296
G1 X-19.914 Y37.21 E87.40042
G1 X-20.666 Y37.091 E87.4479
G1 X-21.401 Y36.893 E87.49537
G1 X-22.112 Y36.619 E87.54289
G1 X-22.79 Y36.273 E87.59036
G1 X-23.427 Y35.857 E87.6378
G1 X-24.281 Y35.127 E87.70787
G1 X-24.427 Y34.981 E87.72074
G1 X-24.936 Y34.415 E87.76821
G1 X-25.383 Y33.799 E87.81568
G1 X-25.763 Y33.139 E87.86317
G1 X-26.072 Y32.443 E87.91066
G1 X-26.306 Y31.719 E87.95811
G1 X-26.463 Y30.974 E88.00559
G1 X-26.55 Y29.854 E88.07565
G1 X-26.55 Y-29.854 E91.79921
G1 X-26.51 Y-30.614 E91.84667
G1 X-26.391 Y-31.366 E91.89415
G1 X-26.193 Y-32.101 E91.94162
G1 X-25.919 Y-32.812 E91.98914
G1 X-25.573 Y-33.49 E92.03661
G1 X-25.157 Y-34.127 E92.08405
G1 X-24.427 Y-34.981 E92.15412
G1 X-24.281 Y-35.127 E92.16699
G1 X-23.715 Y-35.636 E92.21446
G1 X-23.099 Y-36.083 E92.26193
G1 X-22.439 Y-36.463 E92.30942
G1 X-21.743 Y-36.772 E92.35691
G1 X-21.019 Y-37.006 E92.40436
G1 X-20.274 Y-37.163 E92.45184
G1 X-19.154 Y-37.25 E92.5219
G1 X-4.402 Y-37.25 E93.44187
