;FLAVOR:Marlin
;TIME:596
;Filament used: 0.545397m
;Layer height: 0.2
;MINX:-45.917
;MINY:-24.412
;MINZ:0.3
;MAXX:57.469
;MAXY:19.817
;MAXZ:4.8
;Generated with Cura_SteamEngine 4.4.0
M140 S60
M105
M190 S60
M104 S210
M105
M109 S210
M82 ;absolute extrusion mode
G28 ;Home
G1 Z15.0 F6000 ;Move the platform down 15mm
;Prime the extruder
G92 E0
G1 F200 E3
G92 E0
G92 E0
G92 E0
G1 F1500 E-6.5
;LAYER_COUNT:42
;LAYER:0
M107
M204 S800
M205 X5 Y5
G0 F4500 X7.429 Y-.91 Z0.3
M205 X8 Y8
;TYPE:SKIRT
G1 F1500 E0
G1 X7.359 Y-2.165 E0.07839
G1 X7.368 Y-3.422 E0.15678
G1 X7.458 Y-4.676 E0.23518
G1 X7.626 Y-5.921 E0.31353
G1 X7.874 Y-7.153 E0.3919
G1 X8.2 Y-8.367 E0.47029
G1 X8.602 Y-9.558 E0.54868
G1 X9.079 Y-10.721 E0.62707
G1 X9.629 Y-11.851 E0.70545
G1 X10.25 Y-12.943 E0.78379
G1 X10.939 Y-13.994 E0.86216
G1 X11.694 Y-15 E0.9406
G1 X12.51 Y-15.955 E1.01894
G1 X13.387 Y-16.856 E1.09735
G1 X14.318 Y-17.7 E1.17571
G1 X15.301 Y-18.482 E1.25405
G1 X16.333 Y-19.201 E1.33249
G1 X17.407 Y-19.852 E1.41081
G1 X18.521 Y-20.434 E1.48919
G1 X20.102 Y-21.113 E1.59649
G1 X20.437 Y-21.24 E1.61884
G1 X21.626 Y-21.648 E1.69723
G1 X22.838 Y-21.98 E1.7756
G1 X23.649 Y-22.156 E1.82735
G1 X24.181 Y-22.26 E1.86116
G1 X25.349 Y-22.452 E1.93497
G1 X25.924 Y-22.529 E1.97115
G1 X26.753 Y-22.623 E2.02318
G1 X27.269 Y-22.67 E2.05549
G1 X27.682 Y-22.703 E2.08133
G1 X28.182 Y-22.738 E2.11259
G1 X28.686 Y-22.767 E2.14407
G1 X29.272 Y-22.793 E2.18065
G1 X29.723 Y-22.807 E2.20879
G1 X30.887 Y-22.832 E2.2814
G1 X31.127 Y-22.836 E2.29637
G1 X32.308 Y-22.847 E2.37002
G1 X32.977 Y-22.842 E2.41174
G1 X33.506 Y-22.829 E2.44474
G1 X34.161 Y-22.802 E2.48563
G1 X34.697 Y-22.771 E2.51911
G1 X35.682 Y-22.689 E2.58075
G1 X36.181 Y-22.635 E2.61205
G1 X37.33 Y-22.477 E2.68438
G1 X37.919 Y-22.378 E2.72163
G1 X39.435 Y-22.061 E2.81821
G1 X39.995 Y-21.921 E2.85421
G1 X41.152 Y-21.594 E2.92919
G1 X41.703 Y-21.42 E2.96522
G1 X42.748 Y-21.058 E3.03419
G1 X43.242 Y-20.871 E3.06713
G1 X44.275 Y-20.446 E3.13679
G1 X44.763 Y-20.229 E3.1701
G1 X45.94 Y-19.658 E3.25168
G1 X46.392 Y-19.42 E3.28354
G1 X47.485 Y-18.8 E3.3619
G1 X48.846 Y-17.889 E3.46404
G1 X49.255 Y-17.59 E3.49563
G1 X50.245 Y-16.816 E3.574
G1 X51.185 Y-15.981 E3.65241
G1 X52.069 Y-15.088 E3.73077
G1 X52.894 Y-14.14 E3.80915
G1 X53.658 Y-13.142 E3.88753
G1 X54.297 Y-12.192 E3.95893
G1 X54.429 Y-11.983 E3.97434
G1 X55.066 Y-10.9 E4.0527
G1 X55.633 Y-9.778 E4.1311
G1 X56.127 Y-8.623 E4.20944
G1 X56.547 Y-7.438 E4.28784
G1 X56.891 Y-6.229 E4.36623
G1 X57.157 Y-5.001 E4.44459
G1 X57.344 Y-3.758 E4.52298
G1 X57.452 Y-2.506 E4.60135
G1 X57.469 Y-.754 E4.71061
G1 X57.457 Y-.407 E4.73226
G1 X57.374 Y0.847 E4.81064
G1 X57.211 Y2.093 E4.889
G1 X56.969 Y3.326 E4.96736
G1 X56.699 Y4.372 E5.03473
G1 X56.56 Y4.855 E5.06608
G1 X56.174 Y6.051 E5.14445
G1 X55.713 Y7.22 E5.22282
G1 X55.178 Y8.358 E5.30124
G1 X54.572 Y9.459 E5.37961
G1 X53.794 Y10.67 E5.46937
G1 X53.593 Y10.959 E5.49133
G1 X52.843 Y11.967 E5.56968
G1 X52.03 Y12.926 E5.64809
G1 X51.158 Y13.831 E5.72646
G1 X50.23 Y14.679 E5.80486
G1 X49.25 Y15.466 E5.88324
G1 X48.222 Y16.189 E5.96162
G1 X47.426 Y16.685 E6.02011
G1 X47.184 Y16.828 E6.03763
G1 X46.083 Y17.433 E6.11598
G1 X44.945 Y17.966 E6.19435
G1 X43.775 Y18.426 E6.27275
G1 X42.578 Y18.811 E6.35116
G1 X41.152 Y19.163 E6.44276
G1 X40.81 Y19.234 E6.46454
G1 X39.571 Y19.45 E6.54298
G1 X38.322 Y19.587 E6.62133
G1 X37.067 Y19.644 E6.69968
G1 X35.911 Y19.626 E6.77178
G1 X35.353 Y19.601 E6.80661
G1 X34.1 Y19.505 E6.88498
G1 X32.697 Y19.301 E6.9734
G1 X32.181 Y19.207 E7.00611
G1 X31.059 Y18.969 E7.07764
G1 X30.565 Y18.849 E7.10934
G1 X30.039 Y18.714 E7.1432
G1 X28.97 Y18.423 E7.2123
G1 X28.883 Y18.399 E7.21792
G1 X22.338 Y16.585 E7.64148
G1 X21.749 Y16.411 E7.67978
G1 X21.273 Y16.263 E7.71086
G1 X20.085 Y15.852 E7.78926
G1 X18.926 Y15.366 E7.86763
G1 X17.801 Y14.808 E7.94595
G1 X16.712 Y14.179 E8.02438
G1 X15.667 Y13.482 E8.10271
G1 X14.667 Y12.72 E8.18112
G1 X13.718 Y11.895 E8.25953
G1 X12.824 Y11.013 E8.33785
G1 X11.987 Y10.075 E8.41625
G1 X11.212 Y9.085 E8.49466
G1 X10.805 Y8.51 E8.53859
G1 X10.771 Y8.46 E8.54236
G1 X10.098 Y7.398 E8.62077
G1 X9.493 Y6.296 E8.69917
G1 X8.96 Y5.158 E8.77754
G1 X8.501 Y3.989 E8.85586
G1 X8.116 Y2.792 E8.93427
G1 X7.809 Y1.573 E9.01267
G1 X7.58 Y0.338 E9.091
G1 X7.48 Y-.488 E9.14288
G0 F1350 X7.429 Y-.91
M205 X5 Y5
G0 F4500 X7.917 Y-1.08
M205 X8 Y8
G1 F1500 X7.856 Y-2.32 E9.22031
G1 X7.875 Y-3.56 E9.29765
G1 X7.974 Y-4.797 E9.37504
G1 X8.152 Y-6.025 E9.45242
G1 X8.409 Y-7.239 E9.5298
G1 X8.744 Y-8.434 E9.6072
G1 X9.155 Y-9.604 E9.68454
G1 X9.64 Y-10.746 E9.76191
G1 X10.198 Y-11.854 E9.83928
G1 X10.827 Y-12.924 E9.91668
G1 X11.523 Y-13.952 E9.9941
G1 X12.283 Y-14.932 E10.07144
G1 X13.106 Y-15.861 E10.14884
G1 X13.986 Y-16.735 E10.22619
G1 X14.921 Y-17.551 E10.30358
G1 X15.907 Y-18.305 E10.38099
G1 X16.939 Y-18.994 E10.45837
G1 X18.013 Y-19.615 E10.53574
G1 X19.125 Y-20.165 E10.6131
G1 X20.279 Y-20.646 E10.69107
G1 X20.614 Y-20.773 E10.71341
G1 X21.788 Y-21.175 E10.7908
G1 X22.985 Y-21.501 E10.86817
G1 X23.745 Y-21.665 E10.91666
G1 X24.277 Y-21.769 E10.95046
G1 X25.415 Y-21.957 E11.02239
G1 X25.99 Y-22.034 E11.05857
G1 X26.799 Y-22.125 E11.10934
G1 X27.315 Y-22.172 E11.14165
G1 X27.717 Y-22.204 E11.1668
G1 X28.217 Y-22.239 E11.19806
G1 X28.708 Y-22.267 E11.22873
G1 X29.294 Y-22.293 E11.26531
G1 X29.734 Y-22.308 E11.29276
G1 X30.898 Y-22.333 E11.36537
G1 X31.132 Y-22.336 E11.37997
G1 X32.313 Y-22.347 E11.45362
G1 X32.965 Y-22.342 E11.49428
G1 X33.494 Y-22.329 E11.52728
G1 X34.132 Y-22.303 E11.5671
G1 X34.668 Y-22.272 E11.60058
G1 X35.628 Y-22.192 E11.66066
G1 X36.127 Y-22.138 E11.69196
G1 X37.247 Y-21.984 E11.76246
G1 X37.836 Y-21.885 E11.79971
G1 X39.314 Y-21.576 E11.89387
G1 X39.874 Y-21.436 E11.92987
G1 X41.002 Y-21.117 E12.00298
G1 X41.553 Y-20.943 E12.03901
G1 X42.571 Y-20.59 E12.10621
G1 X43.065 Y-20.403 E12.13915
G1 X44.072 Y-19.989 E12.20705
G1 X44.56 Y-19.772 E12.24035
G1 X45.707 Y-19.216 E12.31984
G1 X46.159 Y-18.978 E12.3517
G1 X47.237 Y-18.365 E12.42904
G1 X48.551 Y-17.485 E12.52766
G1 X48.96 Y-17.186 E12.55925
G1 X49.937 Y-16.422 E12.6366
G1 X50.864 Y-15.596 E12.71403
G1 X51.735 Y-14.713 E12.79138
G1 X52.547 Y-13.775 E12.86875
G1 X53.298 Y-12.787 E12.94614
G1 X53.875 Y-11.925 E13.01083
G1 X54.007 Y-11.716 E13.02625
G1 X54.635 Y-10.646 E13.10362
G1 X55.193 Y-9.538 E13.18098
G1 X55.679 Y-8.396 E13.25838
G1 X56.09 Y-7.226 E13.33572
G1 X56.425 Y-6.031 E13.41312
G1 X56.682 Y-4.817 E13.4905
G1 X56.86 Y-3.589 E13.56788
G1 X56.959 Y-2.352 E13.64527
G1 X56.969 Y-.772 E13.74381
G1 X56.957 Y-.425 E13.76546
G1 X56.875 Y0.813 E13.84283
G1 X56.712 Y2.043 E13.92021
G1 X56.471 Y3.261 E13.99764
G1 X56.218 Y4.234 E14.06034
G1 X56.079 Y4.717 E14.09168
G1 X55.698 Y5.898 E14.16907
G1 X55.241 Y7.051 E14.24642
G1 X54.711 Y8.173 E14.3238
G1 X54.11 Y9.259 E14.40121
G1 X53.384 Y10.384 E14.48471
G1 X53.183 Y10.673 E14.50666
G1 X52.442 Y11.669 E14.58408
G1 X51.638 Y12.614 E14.66145
G1 X50.775 Y13.506 E14.73885
G1 X49.857 Y14.34 E14.8162
G1 X48.887 Y15.114 E14.89359
G1 X47.869 Y15.823 E14.97096
G1 X47.172 Y16.255 E15.02209
G1 X46.93 Y16.398 E15.03962
G1 X45.842 Y16.994 E15.11699
G1 X44.718 Y17.519 E15.19435
G1 X43.562 Y17.971 E15.27176
G1 X42.38 Y18.347 E15.34911
G1 X41.05 Y18.673 E15.43451
G1 X40.708 Y18.744 E15.45629
G1 X39.486 Y18.957 E15.53365
G1 X38.252 Y19.091 E15.61106
G1 X37.012 Y19.145 E15.68846
G1 X35.933 Y19.127 E15.75576
G1 X35.375 Y19.102 E15.79059
G1 X34.138 Y19.006 E15.86797
G1 X32.787 Y18.809 E15.95311
G1 X32.271 Y18.715 E15.98582
G1 X31.177 Y18.483 E16.05556
G1 X30.683 Y18.363 E16.08726
G1 X30.171 Y18.231 E16.12024
G1 X29.102 Y17.94 E16.18933
G1 X29.017 Y17.917 E16.19482
G1 X22.472 Y16.103 E16.61837
G1 X21.898 Y15.934 E16.65569
G1 X21.422 Y15.786 E16.68677
G1 X20.249 Y15.38 E16.76418
G1 X19.105 Y14.898 E16.8416
G1 X17.995 Y14.345 E16.91894
G1 X16.923 Y13.721 E16.99629
G1 X15.893 Y13.029 E17.07367
G1 X14.91 Y12.272 E17.15105
G1 X13.977 Y11.453 E17.22847
G1 X13.099 Y10.576 E17.30586
G1 X12.28 Y9.644 E17.38324
G1 X11.219 Y8.228 E17.49358
G1 X11.185 Y8.178 E17.49735
G1 X10.52 Y7.13 E17.57475
G1 X9.925 Y6.042 E17.65209
G1 X9.401 Y4.917 E17.72948
G1 X8.95 Y3.761 E17.80687
G1 X8.575 Y2.578 E17.88426
G1 X8.277 Y1.374 E17.96161
G1 X8.058 Y0.153 E18.03897
G1 X7.965 Y-.657 E18.08982
G0 F1350 X7.917 Y-1.08
M205 X5 Y5
G0 F4500 X8.405 Y-1.249
M205 X8 Y8
G1 F1500 X8.354 Y-2.472 E18.16615
G1 X8.382 Y-3.696 E18.2425
G1 X8.491 Y-4.916 E18.31889
G1 X8.679 Y-6.126 E18.39525
G1 X8.945 Y-7.321 E18.4716
G1 X9.289 Y-8.497 E18.54801
G1 X9.709 Y-9.647 E18.62436
G1 X10.203 Y-10.768 E18.70076
G1 X10.769 Y-11.853 E18.77708
G1 X11.405 Y-12.9 E18.85347
G1 X12.108 Y-13.903 E18.92986
G1 X12.875 Y-14.858 E19.00624
G1 X13.702 Y-15.76 E19.08256
G1 X14.587 Y-16.607 E19.15895
G1 X15.525 Y-17.394 E19.23531
G1 X16.512 Y-18.119 E19.31168
G1 X17.545 Y-18.777 E19.38806
G1 X18.618 Y-19.366 E19.4644
G1 X19.728 Y-19.885 E19.54081
G1 X20.456 Y-20.178 E19.58975
G1 X20.791 Y-20.305 E19.6121
G1 X21.95 Y-20.702 E19.6885
G1 X23.132 Y-21.022 E19.76486
G1 X23.841 Y-21.175 E19.8101
G1 X24.373 Y-21.279 E19.8439
G1 X25.481 Y-21.461 E19.91393
G1 X26.056 Y-21.538 E19.9501
G1 X26.844 Y-21.627 E19.99956
G1 X27.36 Y-21.674 E20.03187
G1 X27.752 Y-21.705 E20.05639
G1 X28.252 Y-21.74 E20.08765
G1 X28.73 Y-21.768 E20.11751
G1 X29.316 Y-21.794 E20.15409
G1 X29.744 Y-21.808 E20.1808
G1 X30.908 Y-21.833 E20.2534
G1 X31.136 Y-21.836 E20.26762
G1 X32.317 Y-21.847 E20.34128
G1 X32.953 Y-21.842 E20.38094
G1 X33.482 Y-21.829 E20.41394
G1 X34.104 Y-21.804 E20.45276
G1 X34.64 Y-21.773 E20.48624
G1 X35.574 Y-21.695 E20.54469
G1 X36.073 Y-21.641 E20.57599
G1 X37.164 Y-21.491 E20.64467
G1 X37.753 Y-21.392 E20.68192
G1 X39.193 Y-21.091 E20.77366
G1 X39.753 Y-20.951 E20.80966
G1 X40.851 Y-20.641 E20.88081
G1 X41.402 Y-20.467 E20.91685
G1 X42.394 Y-20.123 E20.98232
G1 X42.888 Y-19.936 E21.01526
G1 X43.868 Y-19.533 E21.08135
G1 X44.356 Y-19.316 E21.11465
G1 X45.474 Y-18.774 E21.19214
G1 X45.926 Y-18.536 E21.22399
G1 X46.99 Y-17.93 E21.30035
G1 X48.256 Y-17.082 E21.39538
G1 X48.665 Y-16.783 E21.42697
G1 X49.629 Y-16.028 E21.50334
G1 X50.542 Y-15.212 E21.5797
G1 X51.4 Y-14.338 E21.65608
G1 X52.199 Y-13.41 E21.73245
G1 X52.936 Y-12.432 E21.80882
G1 X53.452 Y-11.658 E21.86683
G1 X53.584 Y-11.449 E21.88224
G1 X54.204 Y-10.393 E21.95861
G1 X54.753 Y-9.299 E22.03494
G1 X55.23 Y-8.171 E22.11132
G1 X55.632 Y-7.014 E22.18771
G1 X55.958 Y-5.834 E22.26405
G1 X56.206 Y-4.635 E22.34041
G1 X56.376 Y-3.422 E22.41679
G1 X56.465 Y-2.201 E22.49314
G1 X56.47 Y-.789 E22.5812
G1 X56.458 Y-.442 E22.60285
G1 X56.376 Y0.78 E22.67923
G1 X56.214 Y1.994 E22.75561
G1 X55.973 Y3.194 E22.83194
G1 X55.738 Y4.096 E22.89006
G1 X55.599 Y4.579 E22.92141
G1 X55.222 Y5.744 E22.99777
G1 X54.77 Y6.882 E23.07413
G1 X54.244 Y7.988 E23.15051
G1 X53.648 Y9.057 E23.22684
G1 X52.973 Y10.099 E23.30426
G1 X52.772 Y10.388 E23.32621
G1 X52.04 Y11.37 E23.4026
G1 X51.246 Y12.302 E23.47895
G1 X50.393 Y13.18 E23.55529
G1 X49.484 Y14.001 E23.63168
G1 X48.523 Y14.761 E23.70808
G1 X47.515 Y15.456 E23.78444
G1 X46.918 Y15.824 E23.82818
G1 X46.676 Y15.967 E23.8457
G1 X45.602 Y16.556 E23.92209
G1 X44.491 Y17.072 E23.99849
G1 X43.35 Y17.516 E24.07484
G1 X42.182 Y17.884 E24.15121
G1 X40.948 Y18.184 E24.23041
G1 X40.606 Y18.255 E24.25219
G1 X39.4 Y18.464 E24.32852
G1 X38.182 Y18.595 E24.40492
G1 X36.959 Y18.645 E24.48125
G1 X35.956 Y18.627 E24.54381
G1 X35.398 Y18.602 E24.57864
G1 X34.177 Y18.507 E24.65502
G1 X32.877 Y18.317 E24.73695
G1 X32.361 Y18.223 E24.76966
G1 X31.295 Y17.997 E24.83762
G1 X30.801 Y17.877 E24.86932
G1 X30.302 Y17.749 E24.90145
G1 X29.233 Y17.458 E24.97054
G1 X29.15 Y17.435 E24.97591
G1 X22.605 Y15.621 E25.39946
G1 X22.046 Y15.457 E25.43579
G1 X21.57 Y15.309 E25.46688
G1 X20.413 Y14.907 E25.54326
G1 X19.285 Y14.431 E25.61961
G1 X18.19 Y13.882 E25.696
G1 X17.134 Y13.263 E25.77234
G1 X16.12 Y12.576 E25.84872
G1 X15.153 Y11.824 E25.92511
G1 X14.237 Y11.011 E26.00149
G1 X13.377 Y10.14 E26.07783
G1 X12.575 Y9.215 E26.15417
G1 X11.632 Y7.947 E26.25272
G1 X11.598 Y7.897 E26.25649
G1 X10.943 Y6.863 E26.33282
G1 X10.357 Y5.788 E26.40918
G1 X9.842 Y4.676 E26.4856
G1 X9.401 Y3.534 E26.56194
G1 X9.035 Y2.365 E26.63834
G1 X8.747 Y1.175 E26.71469
G1 X8.536 Y-0.031 E26.79104
G1 X8.45 Y-.826 E26.84091
G0 F1350 X8.405 Y-1.249
M205 X5 Y5
G0 F4500 X8.895 Y-1.415
M205 X8 Y8
G1 F1500 X8.853 Y-2.623 E26.91629
G1 X8.891 Y-3.83 E26.9916
G1 X9.01 Y-5.033 E27.06699
G1 X9.207 Y-6.225 E27.14233
G1 X9.483 Y-7.401 E27.21766
G1 X9.836 Y-8.556 E27.29298
G1 X10.265 Y-9.686 E27.36836
G1 X10.768 Y-10.784 E27.44368
G1 X11.342 Y-11.847 E27.51902
G1 X11.986 Y-12.87 E27.5944
G1 X12.695 Y-13.848 E27.66973
G1 X13.468 Y-14.776 E27.74505
G1 X14.3 Y-15.652 E27.8204
G1 X15.189 Y-16.47 E27.89573
G1 X16.13 Y-17.228 E27.97109
G1 X17.118 Y-17.922 E28.04638
G1 X18.151 Y-18.55 E28.12178
G1 X19.223 Y-19.107 E28.19711
G1 X20.634 Y-19.711 E28.29283
G1 X20.969 Y-19.838 E28.31517
G1 X22.112 Y-20.229 E28.39051
G1 X23.278 Y-20.543 E28.46582
G1 X23.937 Y-20.684 E28.50784
G1 X24.469 Y-20.788 E28.54165
G1 X25.548 Y-20.966 E28.60985
G1 X26.123 Y-21.043 E28.64602
G1 X26.89 Y-21.129 E28.69416
G1 X27.406 Y-21.176 E28.72647
G1 X27.787 Y-21.206 E28.7503
G1 X28.287 Y-21.241 E28.78156
G1 X28.752 Y-21.268 E28.81061
G1 X29.338 Y-21.294 E28.84719
G1 X29.755 Y-21.308 E28.87321
G1 X30.919 Y-21.333 E28.94582
G1 X31.141 Y-21.336 E28.95966
G1 X32.322 Y-21.347 E29.03332
G1 X32.94 Y-21.342 E29.07186
G1 X33.469 Y-21.329 E29.10486
G1 X34.075 Y-21.305 E29.14268
G1 X34.611 Y-21.274 E29.17616
G1 X35.52 Y-21.198 E29.23305
G1 X36.019 Y-21.144 E29.26435
G1 X37.081 Y-20.998 E29.3312
G1 X37.67 Y-20.899 E29.36845
G1 X39.071 Y-20.606 E29.45771
G1 X39.631 Y-20.466 E29.4937
G1 X40.701 Y-20.164 E29.56304
G1 X41.252 Y-19.99 E29.59907
G1 X42.217 Y-19.655 E29.66278
G1 X42.711 Y-19.468 E29.69572
G1 X43.665 Y-19.076 E29.76004
G1 X44.153 Y-18.859 E29.79334
G1 X45.241 Y-18.331 E29.86876
G1 X45.693 Y-18.093 E29.90062
G1 X46.743 Y-17.495 E29.97598
G1 X47.961 Y-16.678 E30.06744
G1 X48.37 Y-16.379 E30.09903
G1 X49.321 Y-15.634 E30.17437
G1 X50.22 Y-14.828 E30.24967
G1 X51.065 Y-13.964 E30.32504
G1 X51.85 Y-13.046 E30.40036
G1 X52.573 Y-12.078 E30.47571
G1 X53.029 Y-11.391 E30.52713
G1 X53.161 Y-11.182 E30.54255
G1 X53.772 Y-10.14 E30.61788
G1 X54.313 Y-9.06 E30.69321
G1 X54.781 Y-7.946 E30.76856
G1 X55.174 Y-6.804 E30.84388
G1 X55.491 Y-5.638 E30.91923
G1 X55.73 Y-4.453 E30.99462
G1 X55.89 Y-3.256 E31.06993
G1 X55.971 Y-2.051 E31.14525
G1 X55.97 Y-.806 E31.22289
G1 X55.958 Y-.459 E31.24454
G1 X55.876 Y0.746 E31.31986
G1 X55.715 Y1.943 E31.39518
G1 X55.475 Y3.127 E31.47052
G1 X55.257 Y3.957 E31.52404
G1 X55.118 Y4.44 E31.55538
G1 X54.746 Y5.59 E31.63076
G1 X54.298 Y6.712 E31.7061
G1 X53.777 Y7.802 E31.78144
G1 X53.186 Y8.855 E31.85675
G1 X52.563 Y9.813 E31.92801
G1 X52.362 Y10.102 E31.94997
G1 X51.639 Y11.071 E32.02536
G1 X50.855 Y11.989 E32.10065
G1 X50.011 Y12.854 E32.17602
G1 X49.112 Y13.661 E32.25136
G1 X48.161 Y14.407 E32.32673
G1 X46.663 Y15.394 E32.43861
G1 X46.421 Y15.537 E32.45614
G1 X45.361 Y16.117 E32.53149
G1 X44.265 Y16.625 E32.60682
G1 X43.138 Y17.06 E32.68216
G1 X41.985 Y17.419 E32.75747
G1 X40.847 Y17.694 E32.83048
G1 X40.505 Y17.765 E32.85226
G1 X39.314 Y17.971 E32.92764
G1 X38.113 Y18.098 E33.00296
G1 X36.906 Y18.146 E33.07829
G1 X35.978 Y18.128 E33.13617
G1 X35.42 Y18.103 E33.171
G1 X34.216 Y18.009 E33.24632
G1 X32.966 Y17.826 E33.3251
G1 X32.45 Y17.732 E33.35781
G1 X31.413 Y17.511 E33.42393
G1 X30.919 Y17.391 E33.45564
G1 X30.433 Y17.266 E33.48693
G1 X29.364 Y16.975 E33.55602
G1 X29.284 Y16.953 E33.5612
G1 X22.739 Y15.139 E33.98475
G1 X22.195 Y14.979 E34.02011
G1 X21.719 Y14.831 E34.0512
G1 X20.577 Y14.434 E34.1266
G1 X19.465 Y13.963 E34.20191
G1 X18.386 Y13.419 E34.27726
G1 X17.346 Y12.805 E34.35258
G1 X16.348 Y12.124 E34.42793
G1 X15.398 Y11.377 E34.5033
G1 X14.499 Y10.57 E34.57863
G1 X13.656 Y9.705 E34.65396
G1 X12.871 Y8.786 E34.72933
G1 X12.046 Y7.666 E34.81608
G1 X12.012 Y7.616 E34.81985
G1 X11.366 Y6.595 E34.8952
G1 X10.789 Y5.534 E34.97052
G1 X10.283 Y4.436 E35.04591
